Adwaita++-Light/panel/16/cryptfolder-open-light.svg

<svg height="16" width="16" xmlns="http://www.w3.org/2000/svg">
  <path d="m8 1c-2.195 0-3.9666 1.7884-4 4h2c0-1.108.892-2 2-2s2 .892 2 2v2h-2-3-1-1c-.554 0-1 .446-1 1v6c0 .554.446 1 1 1h10c.554 0 1-.446 1-1v-6c0-.554-.446-1-1-1h-1v-1.9375c0-2.24-1.784-4.0625-4-4.0625z" fill="#444"/>
</svg>

<svg xmlns="http://www.w3.org/2000/svg" width="16" height="16" version="1.1">
 <defs>
  <style id="current-color-scheme" type="text/css">
   .ColorScheme-Text { color:#444444; } .ColorScheme-Highlight { color:#4285f4; }
  </style>
 </defs>
 <path style="fill:currentColor" class="ColorScheme-Text" d="M 8,1 C 5.805,1 4.0334,2.7884 4,5 H 6 C 6,3.892 6.892,3 8,3 9.108,3 10,3.892 10,5 V 7 H 8 5 4 3 C 2.446,7 2,7.446 2,8 V 14 C 2,14.554 2.446,15 3,15 H 13 C 13.554,15 14,14.554 14,14 V 8 C 14,7.446 13.554,7 13,7 H 12 V 5.0625 C 12,2.8225 10.216,1 8,1 Z"/>
</svg>
